X:1
T:Tarry Trousers (2)
M:4/4
L:1/4
K:C
 D| A B3/4- G/4 F G| A A3/4 G/4 F3/4- E/4 D/2D/2| G3/2 F/2 GA/2-B/2|\
 c B A2| dA/2-B/2 c d| AA/2-G/2 F G| A3/2 B/2 c E| G E D||

